dist/svg/static/car-search-large.svg

<svg xmlns="http://www.w3.org/2000/svg" width="48" height="48" viewBox="0 0 48 48"><g fill="none" stroke="currentColor" stroke-miterlimit="10"><path d="M46.537 36l-11.11-2.5M1.429 36l10.898-2.5M29 34.5h2.952a17.286 17.286 0 0 0 3.187-.685c1.437-.494 3.068-3.944 3.457-4.827a.985.985 0 0 0-.36-1.305L33.5 25.5M9.37 29.251a11.913 11.913 0 0 0 2.872 4.339c.688.778 3.471.91 3.471.91H23M1.54 25.797a7.575 7.575 0 0 0 3.76 1.898"/><path d="M46.419 25.762a7.386 7.386 0 0 1-3.514 1.694 73.38 73.38 0 0 1-4.49.359m7.46-5.149L36 25.5H24m15.521-8H44m-40 0h4.492m-6.665 6a23.356 23.356 0 0 0-.338 4.913c0 .933.021 1.778.058 2.542l.002-.088s-.74 8.605.997 8.633c1.829.03 5.626 0 5.626 0s.599.125.599-1.032l2.334-.968H25"/><path d="M31 37.5h5.863l2.334.968c0 1.157.599 1.032.599 1.032s3.797.03 5.626 0c1.737-.028.997-8.633.997-8.633l.001.088c.037-.764.058-1.609.058-2.541a19.314 19.314 0 0 0-.578-5.686 4.354 4.354 0 0 0-1.143-1.298 5.393 5.393 0 0 0-2.029-.857c-1.323-.3-1.459-.224-1.982-.995s-2.088-3.613-2.088-3.613a15.139 15.139 0 0 0-2.421-2.6 3.674 3.674 0 0 0-1.05-.55A4.936 4.936 0 0 0 33.5 12.5H29m-1 7h12.693M22 12.5h-7.5a5.194 5.194 0 0 0-1.72.316 3.735 3.735 0 0 0-.89.431 14.435 14.435 0 0 0-2.58 2.717S7.745 18.73 7.221 19.5H21"/><path d="M32.161 44.25L19.95 24.783m5.55-10.375c0 7.343-5.33 12.092-11.904 12.092A12.229 12.229 0 0 1 1.5 14.408 12.071 12.071 0 0 1 13.596 2.5 11.906 11.906 0 0 1 25.5 14.408z"/></g></svg>

<?xml version="1.0" encoding="UTF-8" standalone="no"?>
<svg width="48px" height="48px" viewBox="0 0 48 48" version="1.1" xmlns="http://www.w3.org/2000/svg" xmlns:xlink="http://www.w3.org/1999/xlink">
    <!-- Generator: sketchtool 46.2 (44496) - http://www.bohemiancoding.com/sketch -->
    <title>car-search-large</title>
    <desc>Created with sketchtool.</desc>
    <defs></defs>
    <g id="icons-published" stroke="none" stroke-width="1" fill="none" fill-rule="evenodd">
        <g id="briefing" transform="translate(-2016.000000, -282.000000)"></g>
        <g id="car-search-large" stroke="#000000">
            <path d="M46.5,36 L35.4,33.5 M1.4,36 L12.3,33.5 M29,34.5 L32,34.5 C33.1,34.4 34.1,34.1 35.2,33.8 C36.6,33.3 38.3,29.9 38.7,29 C38.9,28.5 38.8,28 38.3,27.7 L33.6,25.5 M9.4,29.3 C10,30.9 11,32.4 12.3,33.6 C13,34.4 15.8,34.5 15.8,34.5 L23,34.5 M1.5,25.8 C2.5,26.8 3.9,27.4 5.3,27.7" id="Shape"></path>
            <path d="M46.4,25.8 C45.4,26.7 44.2,27.3 42.9,27.5 C41.4,27.7 39.9,27.8 38.4,27.9 M45.9,22.7 L36,25.5 L24,25.5 M39.5,17.5 L44,17.5 M4,17.5 L8.5,17.5 M1.8,23.5 C1.5,25.1 1.4,26.8 1.5,28.4 C1.5,29.3 1.5,30.2 1.6,30.9 C1.13333333,36.5666667 1.46666667,39.4 2.6,39.4 C4.4,39.4 8.2,39.4 8.2,39.4 C8.2,39.4 8.8,39.5 8.8,38.4 L11.1,37.4 L25,37.4" id="Shape"></path>
            <path d="M31,37.5 L36.9,37.5 L39.2,38.5 C39.2,39.7 39.8,39.5 39.8,39.5 C39.8,39.5 43.6,39.5 45.4,39.5 C46.5333333,39.5 46.8666667,36.6666667 46.4,31 C46.4,30.2 46.5,29.4 46.5,28.5 C46.6,26.6 46.4,24.7 45.9,22.8 C45.6,22.3 45.2,21.9 44.8,21.5 C44.2,21.1 43.5,20.8 42.8,20.6 C41.5,20.3 41.3,20.4 40.8,19.6 C40.3,18.8 38.7,16 38.7,16 C38,15 37.2,14.2 36.3,13.4 C36,13.2 35.6,13 35.3,12.8 C34.8,12.6 34.2,12.5 33.6,12.5 L29,12.5 M28,19.5 L40.7,19.5 M22,12.5 L14.5,12.5 C13.9,12.5 13.3,12.6 12.8,12.8 C12.5,12.9 12.2,13 11.9,13.2 C10.9,14 10,15 9.3,16 C9.3,16 7.7,18.8 7.2,19.5 L21,19.5" id="Shape"></path>
            <path d="M32.2,44.2 L20,24.8 L32.2,44.2 Z M25.5,14.4 C25.5,21.7 20.2,26.5 13.6,26.5 C7,26.4 1.6,21.1 1.5,14.4 C1.6,7.8 7,2.5 13.6,2.5 C20.2,2.5 25.5,7.8 25.5,14.4 C25.5,14.4 25.5,14.4 25.5,14.4 Z" id="Shape"></path>
        </g>
    </g>
</svg>
